img/logo@light.svg

<svg width="102" height="63" viewBox="0 0 102 63" fill="none" xmlns="http://www.w3.org/2000/svg">
<path d="M12.7188 26.2344H22.6719V30H8.03125V7.25H12.7188V26.2344ZM30.0625 21.9844V30H25.375V7.25H34.25C35.9583 7.25 37.4583 7.5625 38.75 8.1875C40.0521 8.8125 41.0521 9.70312 41.75 10.8594C42.4479 12.0052 42.7969 13.3125 42.7969 14.7812C42.7969 17.0104 42.0312 18.7708 40.5 20.0625C38.9792 21.3438 36.8698 21.9844 34.1719 21.9844H30.0625ZM30.0625 18.1875H34.25C35.4896 18.1875 36.4323 17.8958 37.0781 17.3125C37.7344 16.7292 38.0625 15.8958 38.0625 14.8125C38.0625 13.6979 37.7344 12.7969 37.0781 12.1094C36.4219 11.4219 35.5156 11.0677 34.3594 11.0469H30.0625V18.1875ZM66.8438 25.3125H58.625L57.0625 30H52.0781L60.5469 7.25H64.8906L73.4062 30H68.4219L66.8438 25.3125ZM59.8906 21.5156H65.5781L62.7188 13L59.8906 21.5156ZM84.7344 17.3281C84.1198 17.2448 83.5781 17.2031 83.1094 17.2031C81.401 17.2031 80.2812 17.7812 79.75 18.9375V30H75.2344V13.0938H79.5L79.625 15.1094C80.5312 13.5573 81.7865 12.7812 83.3906 12.7812C83.8906 12.7812 84.3594 12.849 84.7969 12.9844L84.7344 17.3281ZM93.1094 8.9375V13.0938H96V16.4062H93.1094V24.8438C93.1094 25.4688 93.2292 25.9167 93.4688 26.1875C93.7083 26.4583 94.1667 26.5938 94.8438 26.5938C95.3438 26.5938 95.7865 26.5573 96.1719 26.4844V29.9062C95.2865 30.1771 94.375 30.3125 93.4375 30.3125C90.2708 30.3125 88.6562 28.7135 88.5938 25.5156V16.4062H86.125V13.0938H88.5938V8.9375H93.1094Z" fill="#F5F2FF"/>
<path d="M7.29709 39.2C8.25842 39.2 9.04709 39.5173 9.66309 40.152C10.2791 40.7867 10.5871 41.5987 10.5871 42.588C10.5871 43.568 10.2791 44.3753 9.66309 45.01C9.04709 45.6447 8.25842 45.962 7.29709 45.962H5.05709V49H3.78309V39.2H7.29709ZM7.22709 44.814C7.83375 44.814 8.33309 44.604 8.72509 44.184C9.11709 43.764 9.31309 43.232 9.31309 42.588C9.31309 41.9347 9.11709 41.398 8.72509 40.978C8.33309 40.558 7.83375 40.348 7.22709 40.348H5.05709V44.814H7.22709ZM14.6762 49.168C13.6495 49.168 12.8328 48.846 12.2262 48.202C11.6195 47.5487 11.3162 46.7367 11.3162 45.766C11.3162 44.7953 11.6195 43.988 12.2262 43.344C12.8328 42.7 13.6495 42.378 14.6762 42.378C15.6935 42.378 16.5055 42.7047 17.1122 43.358C17.7282 44.002 18.0362 44.8047 18.0362 45.766C18.0362 46.7367 17.7282 47.5487 17.1122 48.202C16.5055 48.846 15.6935 49.168 14.6762 49.168ZM13.0942 47.432C13.4862 47.8613 14.0135 48.076 14.6762 48.076C15.3388 48.076 15.8615 47.8613 16.2442 47.432C16.6268 46.9933 16.8182 46.438 16.8182 45.766C16.8182 45.1033 16.6268 44.5573 16.2442 44.128C15.8615 43.6893 15.3388 43.47 14.6762 43.47C14.0135 43.47 13.4862 43.6893 13.0942 44.128C12.7115 44.5573 12.5202 45.108 12.5202 45.78C12.5202 46.4427 12.7115 46.9933 13.0942 47.432ZM22.3835 49.168C21.4035 49.168 20.6242 48.86 20.0455 48.244C19.4668 47.6187 19.1775 46.7973 19.1775 45.78C19.1775 44.7627 19.4668 43.946 20.0455 43.33C20.6242 42.7047 21.4035 42.392 22.3835 42.392C23.2515 42.392 23.9515 42.6113 24.4835 43.05C25.0155 43.4793 25.3188 44.058 25.3935 44.786H24.1755C24.0075 43.918 23.4102 43.484 22.3835 43.484C21.7582 43.484 21.2682 43.6893 20.9135 44.1C20.5588 44.5013 20.3815 45.0613 20.3815 45.78C20.3815 46.4987 20.5588 47.0633 20.9135 47.474C21.2682 47.8753 21.7582 48.076 22.3835 48.076C23.4008 48.076 23.9982 47.656 24.1755 46.816H25.3935C25.3188 47.5347 25.0155 48.1087 24.4835 48.538C23.9515 48.958 23.2515 49.168 22.3835 49.168ZM32.7229 49H31.5049V43.568H28.1869V49H26.9689V42.546H32.7229V49ZM39.3526 44.492L36.0346 48.482V49H34.8166V42.546H36.0346V47.11L39.3526 43.092V42.546H40.5706V49H39.3526V44.492ZM45.3523 49.168C44.3723 49.168 43.5929 48.86 43.0143 48.244C42.4356 47.6187 42.1463 46.7973 42.1463 45.78C42.1463 44.7627 42.4356 43.946 43.0143 43.33C43.5929 42.7047 44.3723 42.392 45.3523 42.392C46.2203 42.392 46.9203 42.6113 47.4523 43.05C47.9843 43.4793 48.2876 44.058 48.3623 44.786H47.1443C46.9763 43.918 46.3789 43.484 45.3523 43.484C44.7269 43.484 44.2369 43.6893 43.8823 44.1C43.5276 44.5013 43.3503 45.0613 43.3503 45.78C43.3503 46.4987 43.5276 47.0633 43.8823 47.474C44.2369 47.8753 44.7269 48.076 45.3523 48.076C46.3696 48.076 46.9669 47.656 47.1443 46.816H48.3623C48.2876 47.5347 47.9843 48.1087 47.4523 48.538C46.9203 48.958 46.2203 49.168 45.3523 49.168ZM49.9377 42.546H51.1557V44.8H52.8357C53.517 44.8 54.063 45.0007 54.4737 45.402C54.8844 45.8033 55.0897 46.3027 55.0897 46.9C55.0897 47.4787 54.8704 47.9733 54.4317 48.384C54.0024 48.7947 53.4657 49 52.8217 49H49.9377V42.546ZM51.1557 45.766V48.02H52.6817C53.0364 48.02 53.3164 47.9173 53.5217 47.712C53.727 47.4973 53.8297 47.2267 53.8297 46.9C53.8297 46.564 53.727 46.2933 53.5217 46.088C53.3257 45.8733 53.055 45.766 52.7097 45.766H51.1557ZM60.0822 42.546H63.1202C63.8482 42.546 64.3662 42.714 64.6742 43.05C64.9822 43.386 65.1362 43.778 65.1362 44.226C65.1362 44.5993 64.9962 44.9213 64.7162 45.192C64.4456 45.4627 64.1049 45.6213 63.6942 45.668C64.1236 45.6867 64.4876 45.8407 64.7862 46.13C65.0942 46.4193 65.2482 46.788 65.2482 47.236C65.2482 47.684 65.0709 48.09 64.7162 48.454C64.3709 48.818 63.8156 49 63.0502 49H60.0822V42.546ZM63.0362 45.276C63.2882 45.276 63.4982 45.1873 63.6662 45.01C63.8342 44.8233 63.9182 44.604 63.9182 44.352C63.9182 44.0907 63.8342 43.8713 63.6662 43.694C63.4982 43.5073 63.2836 43.414 63.0222 43.414H61.2722V45.276H63.0362ZM61.2722 46.144V48.132H63.0782C63.3396 48.132 63.5636 48.0387 63.7502 47.852C63.9369 47.656 64.0302 47.4227 64.0302 47.152C64.0302 46.8813 63.9369 46.648 63.7502 46.452C63.5636 46.2467 63.3396 46.144 63.0782 46.144H61.2722ZM72.6715 45.402C72.6715 45.5793 72.6575 45.822 72.6295 46.13H67.6315C67.6408 46.746 67.8275 47.2313 68.1915 47.586C68.5555 47.9313 69.0455 48.104 69.6615 48.104C70.5202 48.104 71.0895 47.7867 71.3695 47.152H72.5875C72.4755 47.7493 72.1488 48.2347 71.6075 48.608C71.0662 48.9813 70.4175 49.168 69.6615 49.168C68.6722 49.168 67.8835 48.8647 67.2955 48.258C66.7168 47.642 66.4275 46.8113 66.4275 45.766C66.4275 44.7393 66.7168 43.918 67.2955 43.302C67.8742 42.686 68.6442 42.378 69.6055 42.378C70.5202 42.378 71.2575 42.658 71.8175 43.218C72.3868 43.778 72.6715 44.506 72.6715 45.402ZM67.6315 45.192H71.4675C71.4675 44.6227 71.2995 44.1747 70.9635 43.848C70.6368 43.5213 70.1795 43.358 69.5915 43.358C69.0128 43.358 68.5462 43.526 68.1915 43.862C67.8462 44.198 67.6595 44.6413 67.6315 45.192ZM83.1363 47.852H83.7803V50.68H82.5623V49H74.2463V42.546H75.4643V47.978H78.0823V42.546H79.3003V47.978H81.9323V42.546H83.1363V47.852ZM90.9645 45.402C90.9645 45.5793 90.9505 45.822 90.9225 46.13H85.9245C85.9338 46.746 86.1205 47.2313 86.4845 47.586C86.8485 47.9313 87.3385 48.104 87.9545 48.104C88.8131 48.104 89.3825 47.7867 89.6625 47.152H90.8805C90.7685 47.7493 90.4418 48.2347 89.9005 48.608C89.3591 48.9813 88.7105 49.168 87.9545 49.168C86.9651 49.168 86.1765 48.8647 85.5885 48.258C85.0098 47.642 84.7205 46.8113 84.7205 45.766C84.7205 44.7393 85.0098 43.918 85.5885 43.302C86.1671 42.686 86.9371 42.378 87.8985 42.378C88.8131 42.378 89.5505 42.658 90.1105 43.218C90.6798 43.778 90.9645 44.506 90.9645 45.402ZM85.9245 45.192H89.7605C89.7605 44.6227 89.5925 44.1747 89.2565 43.848C88.9298 43.5213 88.4725 43.358 87.8845 43.358C87.3058 43.358 86.8391 43.526 86.4845 43.862C86.1391 44.198 85.9525 44.6413 85.9245 45.192ZM97.0893 41.594C96.6506 41.9487 96.0813 42.126 95.3813 42.126C94.6813 42.126 94.1073 41.9487 93.6593 41.594C93.2206 41.23 92.9826 40.74 92.9453 40.124H93.9813C94.0093 40.4787 94.1493 40.7493 94.4013 40.936C94.6626 41.1227 94.9893 41.216 95.3813 41.216C95.7826 41.216 96.1093 41.1227 96.3613 40.936C96.6226 40.7493 96.7673 40.4787 96.7953 40.124H97.8313C97.7846 40.74 97.5373 41.23 97.0893 41.594ZM97.0753 44.492L93.7573 48.482V49H92.5393V42.546H93.7573V47.11L97.0753 43.092V42.546H98.2933V49H97.0753V44.492ZM25.8721 56.492L22.5541 60.482V61H21.3361V54.546H22.5541V59.11L25.8721 55.092V54.546H27.0901V61H25.8721V56.492ZM35.5668 61.168C34.5401 61.168 33.7235 60.846 33.1168 60.202C32.5101 59.5487 32.2068 58.7367 32.2068 57.766C32.2068 56.7953 32.5101 55.988 33.1168 55.344C33.7235 54.7 34.5401 54.378 35.5668 54.378C36.5841 54.378 37.3961 54.7047 38.0028 55.358C38.6188 56.002 38.9268 56.8047 38.9268 57.766C38.9268 58.7367 38.6188 59.5487 38.0028 60.202C37.3961 60.846 36.5841 61.168 35.5668 61.168ZM33.9848 59.432C34.3768 59.8613 34.9041 60.076 35.5668 60.076C36.2295 60.076 36.7521 59.8613 37.1348 59.432C37.5175 58.9933 37.7088 58.438 37.7088 57.766C37.7088 57.1033 37.5175 56.5573 37.1348 56.128C36.7521 55.6893 36.2295 55.47 35.5668 55.47C34.9041 55.47 34.3768 55.6893 33.9848 56.128C33.6021 56.5573 33.4108 57.108 33.4108 57.78C33.4108 58.4427 33.6021 58.9933 33.9848 59.432ZM45.843 59.852H46.487V62.68H45.269V61H40.803V62.68H39.529V59.852H40.173C40.5744 59.628 40.775 59.0773 40.775 58.2V54.546H45.843V59.852ZM41.517 59.978H44.625V55.568H41.993V58.144C41.993 58.8813 41.8344 59.4927 41.517 59.978ZM53.6539 57.402C53.6539 57.5793 53.6399 57.822 53.6119 58.13H48.6139C48.6233 58.746 48.8099 59.2313 49.1739 59.586C49.5379 59.9313 50.0279 60.104 50.6439 60.104C51.5026 60.104 52.0719 59.7867 52.3519 59.152H53.5699C53.4579 59.7493 53.1313 60.2347 52.5899 60.608C52.0486 60.9813 51.3999 61.168 50.6439 61.168C49.6546 61.168 48.8659 60.8647 48.2779 60.258C47.6993 59.642 47.4099 58.8113 47.4099 57.766C47.4099 56.7393 47.6993 55.918 48.2779 55.302C48.8566 54.686 49.6266 54.378 50.5879 54.378C51.5026 54.378 52.2399 54.658 52.7999 55.218C53.3693 55.778 53.6539 56.506 53.6539 57.402ZM48.6139 57.192H52.4499C52.4499 56.6227 52.2819 56.1747 51.9459 55.848C51.6193 55.5213 51.1619 55.358 50.5739 55.358C49.9953 55.358 49.5286 55.526 49.1739 55.862C48.8286 56.198 48.6419 56.6413 48.6139 57.192ZM64.0169 61H62.4909L59.7469 57.962V61H58.5289V57.962L55.7849 61H54.2589L57.3109 57.654H57.2269C57.0122 57.654 56.8255 57.6073 56.6669 57.514C56.5175 57.4113 56.3495 57.2153 56.1629 56.926L55.5749 56.072C55.4349 55.8853 55.3089 55.7593 55.1969 55.694C55.0942 55.6193 54.9589 55.582 54.7909 55.582H54.5109V54.476H55.0289C55.3462 54.476 55.5982 54.5367 55.7849 54.658C55.9809 54.7793 56.1862 54.9987 56.4009 55.316L57.4509 56.786C57.7029 57.1593 57.9829 57.346 58.2909 57.346H58.5289V54.546H59.7469V57.346H59.9849C60.2929 57.346 60.5729 57.1593 60.8249 56.786L61.8749 55.316C62.0896 54.9987 62.2902 54.7793 62.4769 54.658C62.6729 54.5367 62.9296 54.476 63.2469 54.476H63.7649V55.582H63.4849C63.3169 55.582 63.1769 55.6193 63.0649 55.694C62.9622 55.7593 62.8409 55.8853 62.7009 56.072L62.1129 56.926C61.9262 57.2153 61.7535 57.4113 61.5949 57.514C61.4455 57.6073 61.2635 57.654 61.0489 57.654H60.9649L64.0169 61ZM71.1086 59.852H71.7526V62.68H70.5346V61H66.0686V62.68H64.7946V59.852H65.4386C65.84 59.628 66.0406 59.0773 66.0406 58.2V54.546H71.1086V59.852ZM66.7826 59.978H69.8906V55.568H67.2586V58.144C67.2586 58.8813 67.1 59.4927 66.7826 59.978ZM73.3986 54.546H74.6166V56.8H76.2966C76.978 56.8 77.524 57.0007 77.9346 57.402C78.3453 57.8033 78.5506 58.3027 78.5506 58.9C78.5506 59.4787 78.3313 59.9733 77.8926 60.384C77.4633 60.7947 76.9266 61 76.2826 61H73.3986V54.546ZM79.4466 61V54.546H80.6646V61H79.4466ZM74.6166 57.766V60.02H76.1426C76.4973 60.02 76.7773 59.9173 76.9826 59.712C77.188 59.4973 77.2906 59.2267 77.2906 58.9C77.2906 58.564 77.188 58.2933 76.9826 58.088C76.7866 57.8733 76.516 57.766 76.1706 57.766H74.6166Z" fill="white"/>
</svg>

<svg width="102" height="63" viewBox="0 0 102 63" fill="none" xmlns="http://www.w3.org/2000/svg"><path d="M12.719 26.234h9.953V30H8.032V7.25h4.687v18.984zm17.343-4.25V30h-4.687V7.25h8.875c1.708 0 3.208.313 4.5.938 1.302.624 2.302 1.515 3 2.671.698 1.146 1.047 2.454 1.047 3.922 0 2.23-.766 3.99-2.297 5.281-1.52 1.282-3.63 1.922-6.328 1.922h-4.11zm0-3.797h4.188c1.24 0 2.182-.291 2.828-.875.656-.583.984-1.416.984-2.5 0-1.114-.328-2.015-.984-2.703-.656-.687-1.562-1.041-2.719-1.062h-4.297v7.14zm36.782 7.125h-8.219L57.062 30h-4.984l8.469-22.75h4.344L73.406 30h-4.984l-1.578-4.688zm-6.953-3.796h5.687L62.718 13l-2.827 8.516zm24.843-4.188a12.274 12.274 0 00-1.625-.125c-1.708 0-2.828.578-3.359 1.735V30h-4.516V13.094H79.5l.125 2.015c.906-1.552 2.162-2.328 3.766-2.328.5 0 .968.068 1.406.203l-.063 4.344zm8.375-8.39v4.156H96v3.312h-2.89v8.438c0 .625.12 1.073.359 1.343.24.271.698.407 1.375.407.5 0 .943-.037 1.328-.11v3.422a9.294 9.294 0 01-2.734.407c-3.167 0-4.782-1.6-4.844-4.797v-9.11h-2.469v-3.312h2.469V8.938h4.515z" fill="#F5F2FF"/><path d="M7.297 39.2c.961 0 1.75.317 2.366.952.616.635.924 1.447.924 2.436 0 .98-.308 1.787-.924 2.422-.616.635-1.405.952-2.366.952h-2.24V49H3.783v-9.8h3.514zm-.07 5.614c.607 0 1.106-.21 1.498-.63.392-.42.588-.952.588-1.596 0-.653-.196-1.19-.588-1.61-.392-.42-.891-.63-1.498-.63h-2.17v4.466h2.17zm7.45 4.354c-1.027 0-1.844-.322-2.45-.966-.607-.653-.91-1.465-.91-2.436 0-.97.303-1.778.91-2.422.606-.644 1.422-.966 2.45-.966 1.017 0 1.829.327 2.435.98.616.644.924 1.447.924 2.408 0 .97-.308 1.783-.924 2.436-.606.644-1.418.966-2.436.966zm-1.583-1.736c.392.43.92.644 1.582.644.663 0 1.185-.215 1.568-.644.383-.439.574-.994.574-1.666 0-.663-.191-1.209-.574-1.638-.383-.439-.905-.658-1.568-.658-.662 0-1.19.22-1.582.658-.383.43-.574.98-.574 1.652 0 .663.191 1.213.574 1.652zm9.29 1.736c-.98 0-1.76-.308-2.338-.924-.58-.625-.869-1.447-.869-2.464s.29-1.834.869-2.45c.578-.625 1.358-.938 2.338-.938.867 0 1.567.22 2.1.658.531.43.835 1.008.91 1.736h-1.218c-.168-.868-.766-1.302-1.792-1.302-.626 0-1.116.205-1.47.616-.355.401-.533.961-.533 1.68s.178 1.283.532 1.694c.355.401.845.602 1.47.602 1.018 0 1.615-.42 1.793-1.26h1.218c-.075.719-.378 1.293-.91 1.722-.533.42-1.233.63-2.1.63zM32.723 49h-1.218v-5.432h-3.318V49h-1.218v-6.454h5.754V49zm6.63-4.508l-3.318 3.99V49h-1.218v-6.454h1.218v4.564l3.318-4.018v-.546h1.218V49h-1.218v-4.508zm6 4.676c-.98 0-1.76-.308-2.339-.924-.578-.625-.868-1.447-.868-2.464s.29-1.834.868-2.45c.579-.625 1.358-.938 2.338-.938.868 0 1.568.22 2.1.658.532.43.836 1.008.91 1.736h-1.218c-.168-.868-.765-1.302-1.792-1.302-.625 0-1.115.205-1.47.616-.354.401-.532.961-.532 1.68s.178 1.283.532 1.694c.355.401.845.602 1.47.602 1.018 0 1.615-.42 1.792-1.26h1.218c-.074.719-.378 1.293-.91 1.722-.532.42-1.232.63-2.1.63zm4.585-6.622h1.218V44.8h1.68c.681 0 1.227.2 1.638.602.41.401.616.9.616 1.498 0 .579-.22 1.073-.658 1.484-.43.41-.966.616-1.61.616h-2.884v-6.454zm1.218 3.22v2.254h1.526c.354 0 .634-.103.84-.308a1.13 1.13 0 00.308-.812c0-.336-.103-.607-.308-.812-.196-.215-.467-.322-.812-.322h-1.554zm8.926-3.22h3.038c.728 0 1.246.168 1.554.504.308.336.462.728.462 1.176 0 .373-.14.695-.42.966-.27.27-.611.43-1.022.476.43.019.794.173 1.092.462.308.29.462.658.462 1.106 0 .448-.177.854-.532 1.218-.345.364-.9.546-1.666.546h-2.968v-6.454zm2.954 2.73a.832.832 0 00.63-.266.952.952 0 00.252-.658.92.92 0 00-.252-.658.828.828 0 00-.644-.28h-1.75v1.862h1.764zm-1.764.868v1.988h1.806a.916.916 0 00.672-.28.98.98 0 00.28-.7.98.98 0 00-.28-.7.877.877 0 00-.672-.308h-1.806zm11.4-.742c0 .177-.014.42-.043.728h-4.998c.01.616.197 1.101.56 1.456.364.345.855.518 1.47.518.86 0 1.428-.317 1.709-.952h1.218c-.112.597-.44 1.083-.98 1.456-.542.373-1.19.56-1.947.56-.989 0-1.778-.303-2.365-.91-.58-.616-.869-1.447-.869-2.492 0-1.027.29-1.848.868-2.464.58-.616 1.35-.924 2.31-.924.915 0 1.652.28 2.212.84.57.56.855 1.288.855 2.184zm-5.04-.21h3.835c0-.57-.168-1.017-.504-1.344-.326-.327-.783-.49-1.371-.49-.58 0-1.046.168-1.4.504-.346.336-.532.78-.56 1.33zm15.504 2.66h.644v2.828h-1.218V49h-8.316v-6.454h1.218v5.432h2.618v-5.432H79.3v5.432h2.632v-5.432h1.204v5.306zm7.829-2.45c0 .177-.014.42-.043.728h-4.998c.01.616.197 1.101.56 1.456.365.345.855.518 1.47.518.86 0 1.428-.317 1.709-.952h1.218c-.112.597-.44 1.083-.98 1.456-.542.373-1.19.56-1.947.56-.989 0-1.777-.303-2.365-.91-.58-.616-.868-1.447-.868-2.492 0-1.027.289-1.848.867-2.464.58-.616 1.35-.924 2.31-.924.915 0 1.653.28 2.213.84.569.56.853 1.288.853 2.184zm-5.04-.21h3.835c0-.57-.168-1.017-.504-1.344-.326-.327-.784-.49-1.371-.49-.58 0-1.046.168-1.4.504-.346.336-.532.78-.56 1.33zm11.164-3.598c-.438.355-1.008.532-1.708.532s-1.274-.177-1.722-.532c-.438-.364-.676-.854-.714-1.47h1.036c.028.355.168.625.42.812.262.187.588.28.98.28.402 0 .728-.093.98-.28.262-.187.406-.457.434-.812h1.036c-.046.616-.294 1.106-.742 1.47zm-.014 2.898l-3.318 3.99V49H92.54v-6.454h1.218v4.564l3.318-4.018v-.546h1.218V49h-1.218v-4.508zm-71.203 12l-3.318 3.99V61h-1.218v-6.454h1.218v4.564l3.318-4.018v-.546h1.218V61h-1.218v-4.508zm9.695 4.676c-1.027 0-1.843-.322-2.45-.966-.607-.653-.91-1.465-.91-2.436 0-.97.303-1.778.91-2.422.607-.644 1.423-.966 2.45-.966 1.017 0 1.83.327 2.436.98.616.644.924 1.447.924 2.408 0 .97-.308 1.783-.924 2.436-.607.644-1.419.966-2.436.966zm-1.582-1.736c.392.43.92.644 1.582.644.663 0 1.185-.215 1.568-.644.383-.439.574-.994.574-1.666 0-.663-.192-1.209-.574-1.638-.383-.439-.905-.658-1.568-.658s-1.19.22-1.582.658c-.383.43-.574.98-.574 1.652 0 .663.191 1.213.574 1.652zm11.858.42h.644v2.828h-1.218V61h-4.466v1.68h-1.274v-2.828h.644c.401-.224.602-.775.602-1.652v-3.654h5.068v5.306zm-4.326.126h3.108v-4.41h-2.632v2.576c0 .737-.159 1.349-.476 1.834zm12.137-2.576c0 .177-.014.42-.042.728h-4.998c.01.616.196 1.101.56 1.456.364.345.854.518 1.47.518.859 0 1.428-.317 1.708-.952h1.218c-.112.597-.439 1.083-.98 1.456-.541.373-1.19.56-1.946.56-.99 0-1.778-.303-2.366-.91-.579-.616-.868-1.447-.868-2.492 0-1.027.29-1.848.868-2.464.579-.616 1.349-.924 2.31-.924.915 0 1.652.28 2.212.84.57.56.854 1.288.854 2.184zm-5.04-.21h3.836c0-.57-.168-1.017-.504-1.344-.327-.327-.784-.49-1.372-.49-.579 0-1.045.168-1.4.504-.345.336-.532.78-.56 1.33zM64.017 61H62.49l-2.744-3.038V61h-1.218v-3.038L55.785 61h-1.526l3.052-3.346h-.084c-.215 0-.401-.047-.56-.14-.15-.103-.318-.299-.504-.588l-.588-.854c-.14-.187-.266-.313-.378-.378a.675.675 0 00-.406-.112h-.28v-1.106h.518c.317 0 .57.06.756.182.196.121.401.34.616.658l1.05 1.47c.252.373.532.56.84.56h.238v-2.8h1.218v2.8h.238c.308 0 .588-.187.84-.56l1.05-1.47c.215-.317.415-.537.602-.658.196-.121.453-.182.77-.182h.518v1.106h-.28a.74.74 0 00-.42.112c-.103.065-.224.191-.364.378l-.588.854c-.187.29-.36.485-.518.588-.15.093-.331.14-.546.14h-.084L64.017 61zm7.092-1.148h.644v2.828h-1.218V61h-4.466v1.68h-1.274v-2.828h.644c.401-.224.602-.775.602-1.652v-3.654h5.068v5.306zm-4.326.126h3.108v-4.41h-2.632v2.576c0 .737-.159 1.349-.476 1.834zm6.616-5.432h1.218V56.8h1.68c.681 0 1.227.2 1.638.602.41.401.616.9.616 1.498 0 .579-.22 1.073-.658 1.484-.43.41-.966.616-1.61.616h-2.884v-6.454zM79.447 61v-6.454h1.218V61h-1.218zm-4.83-3.234v2.254h1.526c.354 0 .634-.103.84-.308a1.13 1.13 0 00.308-.812c0-.336-.103-.607-.308-.812-.196-.215-.467-.322-.812-.322h-1.554z" fill="#fff"/></svg>
